X: 36
T:En yndig og frydefuld sommertid
M:C
L:1/8
Q:160
C:anon.
O:Denmark
Z:Transcribed by Frank Nordberg - http://www.musicaviva.com
K:F
%http://www.musicaviva.com/abc/denmark.abc
C2|"F"A>B A G F2 (E F)|"C"G2 c2 C2 "F"F2|"Bb"D2 "Gm"G2 "C7"(FE) (DE)|
w:En yn-* dig og fry- de- fuld som- mer- tid i all sin her-* lig*
w:den gl\ae-* der og tr\os- ter s\aa man- gen en, alt ved Guds kj\aer-*
lig-
"F"F4 z2:|A2|"F"c2 c2 "C"G3 A|"Gm"(BA) (GF) "C"G2 (AG)|
w:hed, Den f\o- rer bloms- ter- ska-* ren* frem, og*
w:hed.
"Dm7"F2 (ED) "Gm"G2 "G7"(AG)|"C"(FE) D E "C7"C2 "F"F2|"Bb"D2 G2 "C"(FE)
(DE)|"F"F6|]
w:ro- sen* r\od, s\aa* dej-* lig og s\od, den ser du da* i-* gen.
W:
W:En yndig og frydefuld sommertid i all sin herlighed,
W:den gl\aeder og tr\oster s\aa mangen en, alt ved Guds kj\aerlighed.
W:Den f\orer blomsterskaren frem, og rosen r\od, s\aa dejlig og s\od,
W:den ser du da igen.
W:
W:G\aar jeg om dagen ud eller ind ihvor det v\aere m\aa,
W:da er du stedse i mit sind, om natten liges\aa.
W:Og n\aar jeg sover s\odelig, om dig jeg dr\ommer lykkelig,
W:ret som du hos mig var.
W:
W: From "Falaleiro" http://home.t-online.de/home/pheld/homepage.htm

